X:1
T:La jument de Michao
T:La jument de Michao
T:Chanson traditionnelle de Bretagne
C:Chanson traditionnelle de Bretagne
L:1/8
M:4/4
K:C
V:1 treble nm="Piano" snm="Pno."
V:1
 z6 |: z G | F2 E2 D3 E | D2 C2 D4 | G2 FE DDDE | D2 C2 D2 z2 :: D2 DD D2 DE | FFED C2 C2 | %8
w: |C'est|dans dix ans je|m'en i- rai|J'en- tends le loup et le re-|nard chan- ter|J'en- tends le loup le re-|nard et la be- let- te|
 F2 FF GGFE | D2 C2 D4 :| z6 |: z G | F2 E2 D3 E | D2 C2 D3 D | DDDE F2 F2 | DDDC D3 D | %16
w: J'en- tends le loup et le re-|nard chan- ter||C'est|dans neuf ans je|m'en i- rai La|ju- ment de Mi- chao a|pas- sé dans le pré La|
 DDDD D2 D2 | DEFD C2 C2 | FFFF G2 G2 | DDDC D2 z2 :| z6 |: z D | G2 F2 DDDD | G2 F2 E3 E | %24
w: ju- ment de Mi- chao et|son pe- tit pou- lain a|pas- sé dans le pré et|man- gé tout le foin.||L'hi-|ver vien- dra les gars, l'hi-|ver vien- dra. La|
 DDDE F2 F2 | DDDC D2 z2 :| %26
w: ju- ment de Mi- chao elle|s'en re- pen- ti- ra.|

